svg/pdu.svg

<svg xmlns="http://www.w3.org/2000/svg" width="24" height="24" viewBox="0 0 24 24"><title>px_pdu_24px</title><path d="M22 9H2a2 2 0 0 0-2 2v2a2 2 0 0 0 2 2h20a2 2 0 0 0 2-2v-2a2 2 0 0 0-2-2zM3 13H2v-2h1zm3 0H4v-2h2zm4 0H8v-2h2zm4 0h-2v-2h2zm4 0h-2v-2h2zm4 0h-2v-2h2z"/><path fill="none" d="M0 0h24v24H0z"/></svg>

<svg xmlns="http://www.w3.org/2000/svg" width="24" height="24" viewBox="0 0 24 24">
  <title>px_pdu_24px</title>
  <path d="M22,9H2a2,2,0,0,0-2,2v2a2,2,0,0,0,2,2H22a2,2,0,0,0,2-2V11A2,2,0,0,0,22,9ZM3,13H2V11H3Zm3,0H4V11H6Zm4,0H8V11h2Zm4,0H12V11h2Zm4,0H16V11h2Zm4,0H20V11h2Z"/>
  <rect width="24" height="24" fill="none"/>
</svg>
